libs/icons/src/svg/video-on.svg

<svg width="16" height="16" viewBox="0 0 16 16" fill="none" xmlns="http://www.w3.org/2000/svg">
<path fill-rule="evenodd" clip-rule="evenodd" d="M1.33333 4C1.33333 3.6 1.6 3.33333 2 3.33333H9.33333C9.73333 3.33333 10 3.6 10 4V6.66667V9.33333V12C10 12.4 9.73333 12.6667 9.33333 12.6667H2C1.6 12.6667 1.33333 12.4 1.33333 12V4ZM11.3333 10.3333V12C11.3333 13.1333 10.4667 14 9.33333 14H2C0.866667 14 0 13.1333 0 12V4C0 2.86667 0.866667 2 2 2H9.33333C10.4667 2 11.3333 2.86667 11.3333 4V5.66667L15.0667 4.06667C15.2667 4 15.5333 4 15.6667 4.13333C15.8667 4.26667 16 4.46667 16 4.66667V11.3333C16 11.5333 15.8667 11.7333 15.7333 11.8667C15.5333 12 15.3333 12 15.1333 11.9333L11.3333 10.3333ZM11.3333 8.86667L14.6667 10.2667V5.6L11.3333 7V8.86667Z" fill="#202327"/>
</svg>

<svg xmlns="http://www.w3.org/2000/svg" viewBox="0 0 16 16" class="sageicon"><path fill-rule="evenodd" d="M1.333 4c0-.4.267-.667.667-.667h7.333c.4 0 .667.267.667.667v8c0 .4-.267.667-.667.667H2c-.4 0-.667-.267-.667-.667V4Zm10 6.333V12c0 1.133-.866 2-2 2H2c-1.133 0-2-.867-2-2V4c0-1.133.867-2 2-2h7.333c1.134 0 2 .867 2 2v1.667l3.734-1.6c.2-.067.466-.067.6.066.2.134.333.334.333.534v6.666c0 .2-.133.4-.267.534-.2.133-.4.133-.6.066l-3.8-1.6Zm0-1.466 3.334 1.4V5.6L11.333 7v1.867Z"/></svg>
